X: 41790
T: Velvet In The Wind
R: waltz
M: 3/4
K: Dmajor
FE|:D2 DE FA|B2 BA Bd|e2 ed e2|f2 fe fa|b2 ba fe|
a2 af ed|1 fe dBBd|B2 AF E2:|2 f2 f2 e2|d2de fa||
|:b2 ba fe|a2 af ed|fe dBBd|B2 AF E2|D2 DE FA|
B2 BA Bd|1 e2 ed fd|e2 ed fa:|2 e2 ed fe|d3||

